X: 132
T: Pat Wilmot's
T: Reel, G
C: Johnny Wilmot
L: 1/16
M: C|
K: G
|: D4| G4B2G2 d2G2B2G2| A2B2c2d2 e4e2f2| g2f2e2d2 e2f2g2e2| d2B2A2B2 G2F2E2D2| 
G4B2G2 d2G2B2G2| A2B2c2d2 e4e2f2| g2f2e2d2 e2a2g2e2| d2B2A2B2 G4:| 
|: c4| (3B2c2d2 d2B2 d2e2g2d2| (3e2f2g2 e2d2 B2d2e2f2| g2f2e2d2 e2f2g2e2| d2B2A2B2 G2F2E2D2| 
B2d2d2B2 d2e2g2d2| e2g2e2d2 B2d2e2f2| g2f2e2d2 e2f2g2e2| d2B2A2B2 G4:| 
D: Wendy MacIsaac, That's What You Get, WMT004
